web/ui/src/components/workflow/workflow-viewer/svgs/shape/end.svg

<svg height="200" viewBox="0 0 200 200" width="200" xmlns="http://www.w3.org/2000/svg"><g fill="none" fill-rule="evenodd"><rect fill="#fff" height="198" rx="51" stroke="#fa541c" stroke-width="2" width="198" x="1" y="1"/><g fill-rule="nonzero"><path d="m40 40h119.322034v119.322034h-119.322034z" fill="#000" opacity="0"/><path d="m100 41c32.58275 0 59 26.41725 59 59s-26.41725 59-59 59-59-26.41725-59-59 26.41725-59 59-59zm0 9.8333333c-27.15475 0-49.1666667 22.0119167-49.1666667 49.1666667s22.0119167 49.166667 49.1666667 49.166667 49.166667-22.011917 49.166667-49.166667-22.011917-49.1666667-49.166667-49.1666667zm9.833333 29.5c2.607962 0 5.109109 1.0360089 6.953217 2.8801166 1.844108 1.8441078 2.880117 4.3452546 2.880117 6.9532168v19.6666663c0 2.607962-1.036009 5.109109-2.880117 6.953217s-4.345255 2.880117-6.953217 2.880117h-19.6666663c-2.6079622 0-5.109109-1.036009-6.9532168-2.880117-1.8441077-1.844108-2.8801166-4.345255-2.8801166-6.953217v-19.6666663c0-2.6079622 1.0360089-5.109109 2.8801166-6.9532168 1.8441078-1.8441077 4.3452546-2.8801166 6.9532168-2.8801166z" fill="#fa541c"/></g></g></svg>

<?xml version="1.0" encoding="UTF-8"?>
<svg width="200px" height="200px" viewBox="0 0 200 200" version="1.1" xmlns="http://www.w3.org/2000/svg" xmlns:xlink="http://www.w3.org/1999/xlink">
    <title>node-version备份 4</title>
    <g id="页面-1" stroke="none" stroke-width="1" fill="none" fill-rule="evenodd">
        <g id="节点" transform="translate(-2995.000000, -707.000000)">
            <g id="编组-10" transform="translate(2995.000000, 707.000000)">
                <rect id="矩形备份-47" stroke="#FA541C" stroke-width="2" fill="#FFFFFF" x="1" y="1" width="198" height="198" rx="51"></rect>
                <rect id="矩形" fill="#000000" fill-rule="nonzero" opacity="0" x="40" y="40" width="119.322034" height="119.322034"></rect>
                <path d="M100,41 C132.58275,41 159,67.41725 159,100 C159,132.58275 132.58275,159 100,159 C67.41725,159 41,132.58275 41,100 C41,67.41725 67.41725,41 100,41 Z M100,50.8333333 C72.84525,50.8333333 50.8333333,72.84525 50.8333333,100 C50.8333333,127.15475 72.84525,149.166667 100,149.166667 C127.15475,149.166667 149.166667,127.15475 149.166667,100 C149.166667,72.84525 127.15475,50.8333333 100,50.8333333 Z M109.833333,80.3333333 C112.441295,80.3333333 114.942442,81.3693422 116.78655,83.2134499 C118.630658,85.0575577 119.666667,87.5587045 119.666667,90.1666667 L119.666667,109.833333 C119.666667,112.441295 118.630658,114.942442 116.78655,116.78655 C114.942442,118.630658 112.441295,119.666667 109.833333,119.666667 L90.1666667,119.666667 C87.5587045,119.666667 85.0575577,118.630658 83.2134499,116.78655 C81.3693422,114.942442 80.3333333,112.441295 80.3333333,109.833333 L80.3333333,90.1666667 C80.3333333,87.5587045 81.3693422,85.0575577 83.2134499,83.2134499 C85.0575577,81.3693422 87.5587045,80.3333333 90.1666667,80.3333333 L109.833333,80.3333333 L109.833333,80.3333333 Z" id="形状" fill="#FA541C" fill-rule="nonzero"></path>
                <g id="编组-8备份" transform="translate(40.000000, 40.000000)"></g>
            </g>
        </g>
    </g>
</svg>
